X:1
T:Front Rank Hornpipe
M:C|
L:1/8
Q:80
C:P.M. Bill Livingstone
S:Hornpipe
K:HP
|: e|
{g}A/2c/2{ecfc}e{g}e/2f/2{g}f/2e/2|
{ag}a{fg}f/2e/2{g}f/2a/2f/2e/2|
{g}A/2c/2{ecfc}e{g}e/2f/2{g}f/2e/2|  !
{g}f/2B/2{gBeBG}B{g}d/2e/2{g}c/2B/2{g}A/2c/2{ecfc}e{g}e/2f/2{g}f/2e/2|
{ag}a{fg}f/2e/2{g}f/2a/2f/2e/2|
{g}f/2B/2{gBeBG}B{g}d/2e/2{g}c/2B/2|  !
{gAGAG}A{g}A/2{d}B/2{gAGAG}A:| |:
{gef}e|
{g}A/2e/2{gcd}c/2e/2{g}f/2e/2{gcd}c/2e/2|  !
{ag}a{fg}f/2e/2{g}f/2a/2f/2e/2|
{g}A/2e/2{gcd}c/2e/2a/2e/2{gcd}c/2e/2|
{g}f/2B/2{gBeBG}B{g}d/2e/2{g}c/2B/2{g}A/2e/2{gcd}c/2e/2{g}f/2e/2{gcd}c/2
e/2|  !
{g}f/2d/2{gdedG}d{g}f/2a/2f/2d/2|
{g}e/2c/2{gcecG}c{g}d/2e/2{g}c/2B/2|
{gAGAG}A{g}A/2{d}B/2{gAGAG}A:| |:  !
a/2f/2|
{g}e/2a/2{cd}c/2a/2e/2a/2{cd}c/2a/2|
f/2d/2{gdedG}d{g}f/2a/2f/2d/2|  !
{g}e/2a/2{cd}c/2a/2e/2a/2{cd}c/2a/2|
f/2B/2{gBeBG}B{g}d/2e/2{g}c/2B/2{g}e/2a/2{cd}c/2a/2A/2a/2{cd}c/2a/2|
f/2d/2{gdedG}d{g}f/2a/2f/2d/2|  !
{g}e/2c/2{gcecG}c{g}d/2e/2{g}c/2B/2|
{gAGAG}A{g}A/2{d}B/2{gAGAG}A:| |:
{gef}e|  !
{g}A/2c/2{ecfc}e{g}A/2e/2{gcd}c/2e/2|
{g}A/2d/2{edfd}e{a}g/2f/2{g}e/2d/2|
{gcd}c/2e/2{g}A/2e/2a/2e/2{gcd}c/2e/2|  !
{g}f/2B/2{gBeBG}B{g}d/2e/2{g}c/2B/2{g}A/2c/2{ecfc}e{g}A/2e/2{gcd}c/2e/2|
